app/[lang]/(home)/(new-home)/assets/aiagent-appicons/openai.svg

<svg width="32" height="32" viewBox="0 0 32 32" fill="none" xmlns="http://www.w3.org/2000/svg">
<g opacity="0.5">
<path d="M30.957 15.9154C31.2893 16.6566 31.5002 17.449 31.5865 18.2574C31.6695 19.0657 31.628 19.8837 31.4555 20.6793C31.2861 21.4748 30.9922 22.2385 30.5832 22.9414C30.3148 23.4111 29.9985 23.852 29.6343 24.2578C29.2732 24.6604 28.8706 25.0246 28.4329 25.3441C27.992 25.6636 27.5223 25.932 27.0239 26.1525C26.5286 26.3698 26.011 26.5359 25.4806 26.6445C25.2314 27.4178 24.8608 28.1494 24.3815 28.8076C23.9054 29.4658 23.3271 30.0441 22.6689 30.5202C22.0107 30.9995 21.2822 31.3701 20.509 31.6193C19.7358 31.8717 18.9274 31.9963 18.1127 31.9963C17.5727 31.9995 17.0295 31.942 16.4992 31.8334C15.972 31.7216 15.4544 31.5522 14.9591 31.3318C14.4639 31.1113 13.9942 30.8365 13.5565 30.517C13.1219 30.1975 12.7193 29.8301 12.3615 29.4243C11.5627 29.5968 10.7448 29.6384 9.93641 29.5553C9.12804 29.469 8.33566 29.2581 7.59119 28.9258C6.84993 28.5967 6.16298 28.1494 5.5591 27.6031C4.95523 27.0567 4.44082 26.4177 4.03504 25.7148C3.76345 25.2451 3.5398 24.7498 3.37045 24.2354C3.20111 23.721 3.08928 23.1906 3.03177 22.6506C2.97426 22.1139 2.97746 21.5707 3.03497 21.0307C3.09248 20.494 3.2107 19.9636 3.38004 19.4491C2.83687 18.8453 2.38956 18.1583 2.05726 17.4171C1.72817 16.6726 1.5141 15.8834 1.43102 15.075C1.34475 14.2667 1.38949 13.4487 1.55883 12.6532C1.72817 11.8576 2.02212 11.0939 2.43109 10.391C2.69948 9.92133 3.0158 9.47721 3.37684 9.07463C3.73789 8.67204 4.14367 8.3078 4.5814 7.98829C5.01913 7.66878 5.49201 7.39719 5.98725 7.17993C6.48569 6.95946 7.00329 6.79651 7.53368 6.68788C7.7829 5.91147 8.15353 5.18298 8.62961 4.52479C9.10887 3.8666 9.68719 3.28828 10.3454 2.80902C11.0036 2.33294 11.7321 1.96231 12.5053 1.7099C13.2785 1.46068 14.0869 1.33288 14.9016 1.33607C15.4416 1.33288 15.9847 1.38719 16.5151 1.49902C17.0455 1.61085 17.5631 1.777 18.0584 1.99746C18.5536 2.22112 19.0233 2.4927 19.461 2.81221C19.8988 3.13492 20.3013 3.49916 20.6592 3.90494C21.4548 3.7356 22.2727 3.69406 23.0811 3.77713C23.8894 3.86021 24.6786 4.07428 25.4231 4.40338C26.1644 4.73567 26.8513 5.17979 27.4552 5.72615C28.0591 6.26932 28.5735 6.90515 28.9793 7.61127C29.2508 8.07775 29.4745 8.57299 29.6438 9.0906C29.8132 9.60502 29.9282 10.1354 29.9825 10.6754C30.04 11.2154 30.04 11.7585 29.9793 12.2985C29.9218 12.8385 29.8036 13.3689 29.6343 13.8833C30.1806 14.4871 30.6247 15.1709 30.957 15.9154ZM20.3109 29.5553C21.0075 29.2677 21.6401 28.8428 22.1737 28.3092C22.7073 27.7756 23.1322 27.143 23.4198 26.4432C23.7073 25.7467 23.8575 24.9991 23.8575 24.245V17.1199C23.8554 17.1135 23.8532 17.1061 23.8511 17.0975C23.849 17.0912 23.8458 17.0848 23.8415 17.0784C23.8373 17.072 23.8319 17.0667 23.8255 17.0624C23.8192 17.056 23.8128 17.0518 23.8064 17.0496L21.2279 15.5607V24.1683C21.2279 24.2546 21.2151 24.3441 21.1928 24.4271C21.1704 24.5134 21.1385 24.5933 21.0937 24.67C21.049 24.7466 20.9979 24.8169 20.934 24.8776C20.8719 24.9396 20.8021 24.9932 20.7263 25.0374L14.6204 28.5616C14.5693 28.5936 14.483 28.6383 14.4383 28.6638C14.6907 28.8779 14.9655 29.0664 15.2531 29.2326C15.5438 29.3987 15.8442 29.5393 16.1573 29.6543C16.4704 29.7662 16.7931 29.8524 17.119 29.9099C17.4481 29.9675 17.7804 29.9962 18.1127 29.9962C18.8667 29.9962 19.6144 29.846 20.3109 29.5553ZM5.76998 24.7179C6.1502 25.3729 6.65183 25.9416 7.24932 26.4017C7.85 26.8618 8.53056 27.1973 9.25904 27.3922C9.98753 27.5871 10.748 27.6382 11.4956 27.5392C12.2433 27.4401 12.9622 27.1973 13.6172 26.8203L19.7901 23.2577L19.8061 23.2417C19.8104 23.2375 19.8136 23.2311 19.8157 23.2226C19.8199 23.2162 19.8231 23.2098 19.8253 23.2034V20.2L12.3743 24.5102C12.2976 24.5549 12.2177 24.5869 12.1346 24.6124C12.0484 24.6348 11.9621 24.6444 11.8726 24.6444C11.7864 24.6444 11.7001 24.6348 11.6138 24.6124C11.5308 24.5869 11.4477 24.5549 11.371 24.5102L5.26515 20.9828C5.21084 20.9509 5.13096 20.9029 5.08623 20.8742C5.02872 21.2033 4.99996 21.5356 4.99996 21.8678C4.99996 22.2001 5.03191 22.5324 5.08942 22.8615C5.14694 23.1874 5.2364 23.5101 5.34823 23.8233C5.46325 24.1364 5.60384 24.4367 5.76998 24.7243V24.7179ZM4.16604 11.3943C3.78901 12.0493 3.54619 12.7714 3.44714 13.519C3.34809 14.2667 3.39921 15.0239 3.59411 15.7556C3.78901 16.4841 4.1245 17.1646 4.5846 17.7653C5.04469 18.3628 5.61662 18.8644 6.26842 19.2415L12.4382 22.8072C12.4446 22.8093 12.452 22.8115 12.4605 22.8136H12.4829C12.4914 22.8136 12.4989 22.8115 12.5053 22.8072C12.5117 22.8051 12.5181 22.8019 12.5244 22.7976L15.1125 21.3023L7.66149 17.0017C7.588 16.957 7.51771 16.9026 7.4538 16.8419C7.39189 16.7798 7.3382 16.71 7.29405 16.6343C7.25251 16.5576 7.21737 16.4777 7.195 16.3914C7.17264 16.3084 7.15985 16.2221 7.16305 16.1326V8.87653C6.84993 8.99155 6.54639 9.13214 6.25883 9.29828C5.97127 9.46763 5.69969 9.65933 5.44408 9.87341C5.19167 10.0875 4.95523 10.3239 4.74116 10.5795C4.52708 10.8319 4.33857 11.1067 4.17243 11.3943H4.16604ZM25.3592 16.3275C25.4359 16.3723 25.5062 16.4234 25.5701 16.4873C25.6308 16.548 25.6851 16.6183 25.7298 16.695C25.7714 16.7716 25.8065 16.8547 25.8289 16.9378C25.8481 17.0241 25.8608 17.1103 25.8576 17.1998V24.4559C26.8833 24.0789 27.7779 23.4175 28.4393 22.5484C29.1039 21.6793 29.5033 20.6409 29.5959 19.5546C29.6886 18.4683 29.4713 17.3755 28.9665 16.4074C28.4617 15.4393 27.6916 14.6341 26.7459 14.091L20.5761 10.5252C20.5697 10.5231 20.5623 10.5209 20.5538 10.5188H20.5314C20.525 10.5209 20.5175 10.5231 20.509 10.5252C20.5026 10.5273 20.4962 10.5305 20.4899 10.5348L17.9146 12.0237L25.3656 16.3275H25.3592ZM27.9313 12.4614H27.9281V12.4646L27.9313 12.4614ZM27.9281 12.4582C28.1134 11.3847 27.9888 10.2792 27.567 9.27272C27.1485 8.26626 26.4487 7.40039 25.5541 6.77415C24.6595 6.1511 23.6051 5.79325 22.5156 5.74532C21.4228 5.70059 20.3429 5.96578 19.3971 6.50895L13.2274 10.0715C13.221 10.0758 13.2157 10.0811 13.2114 10.0875L13.1986 10.1066C13.1965 10.113 13.1944 10.1205 13.1922 10.129C13.1901 10.1354 13.189 10.1429 13.189 10.1514V13.1292L20.64 8.82541C20.7167 8.78068 20.7998 8.74873 20.8829 8.72316C20.9691 8.7008 21.0554 8.69121 21.1417 8.69121C21.2311 8.69121 21.3174 8.7008 21.4037 8.72316C21.4867 8.74873 21.5666 8.78068 21.6433 8.82541L27.7491 12.3528C27.8035 12.3848 27.8833 12.4295 27.9281 12.4582ZM11.7832 9.16089C11.7832 9.07463 11.796 8.98836 11.8183 8.90209C11.8407 8.81902 11.8726 8.73595 11.9174 8.65926C11.9621 8.58578 12.0132 8.51548 12.0771 8.45158C12.1378 8.39087 12.2081 8.33656 12.2848 8.29502L18.3907 4.77081C18.4482 4.73567 18.5281 4.69094 18.5728 4.66857C17.7357 3.96884 16.7132 3.52153 15.6301 3.38414C14.5469 3.24355 13.4478 3.41609 12.4605 3.87938C11.4701 4.34267 10.6329 5.08074 10.0482 6.00093C9.46353 6.92432 9.1536 7.99148 9.1536 9.08421V16.2093C9.15573 16.2178 9.15786 16.2253 9.15999 16.2317C9.16212 16.2381 9.16532 16.2445 9.16958 16.2508C9.17384 16.2572 9.17916 16.2636 9.18555 16.27C9.18981 16.2743 9.1962 16.2785 9.20472 16.2828L11.7832 17.7717V9.16089ZM13.1826 18.5769L16.5024 20.4939L19.8221 18.5769V14.7459L16.5056 12.8289L13.1858 14.7459L13.1826 18.5769Z" fill="white"/>
</g>
</svg>

<svg xmlns="http://www.w3.org/2000/svg" fill="none" viewBox="0 0 32 32">
  <path
    fill="#fff"
    d="M30.96 15.92a7.74 7.74 0 0 1-5.48 10.72 7.68 7.68 0 0 1-4.97 4.98 7.72 7.72 0 0 1-8.15-2.2 7.74 7.74 0 0 1-8.98-9.97 7.83 7.83 0 0 1-1.95-4.38A7.7 7.7 0 0 1 4.58 8a7.5 7.5 0 0 1 2.95-1.3 7.71 7.71 0 0 1 8.99-5.2 7.7 7.7 0 0 1 4.14 2.41 7.8 7.8 0 0 1 6.8 1.83 7.68 7.68 0 0 1 2.52 4.95 7.45 7.45 0 0 1-.35 3.2c.55.6 1 1.3 1.33 2.04ZM20.3 29.56a5.73 5.73 0 0 0 3.55-5.31V17.1l-.02-.02-.01-.02-.02-.01-2.58-1.49v8.6a1.01 1.01 0 0 1-.5.88l-6.11 3.52-.18.1a5.55 5.55 0 0 0 2.68 1.25 5.76 5.76 0 0 0 3.2-.35ZM5.77 24.72a5.8 5.8 0 0 0 5.73 2.82c.74-.1 1.46-.34 2.12-.72l6.17-3.56.02-.02v-.02l.02-.02v-3l-7.46 4.31a1.03 1.03 0 0 1-1 0l-6.1-3.53a6.52 6.52 0 0 1-.18-.1 5.77 5.77 0 0 0 .68 3.84Zm-1.6-13.33a5.78 5.78 0 0 0 2.1 7.85l6.17 3.57h.07l.01-.01 2.6-1.5L7.65 17a1.03 1.03 0 0 1-.47-.61.87.87 0 0 1-.03-.26V8.88a5.82 5.82 0 0 0-2.99 2.51Zm21.19 4.94a1.02 1.02 0 0 1 .37.37c.04.07.08.15.1.24.02.08.03.17.03.26v7.26a5.72 5.72 0 0 0 3.1-8.05 5.72 5.72 0 0 0-2.21-2.32l-6.17-3.56-.03-.01h-.04l-.02.01-2.58 1.5 7.46 4.3h-.01Zm2.57-3.87Zm0 0a5.72 5.72 0 0 0-5.41-6.71 5.78 5.78 0 0 0-3.12.76l-6.17 3.56-.02.02-.01.02a.37.37 0 0 0-.01.04v2.98l7.45-4.3a1.02 1.02 0 0 1 1 0l6.1 3.52.19.1Zm-16.15-3.3a1.03 1.03 0 0 1 .3-.7.9.9 0 0 1 .2-.16l6.11-3.53.18-.1A5.71 5.71 0 0 0 10.05 6c-.59.92-.9 2-.9 3.08v7.13l.01.02.01.02.02.02.01.01 2.58 1.5V9.15Zm1.4 9.42 3.32 1.91 3.32-1.91v-3.83l-3.31-1.92-3.32 1.92v3.83Z"
    opacity=".5"
  />
</svg>
